X: 8486
T: Crazy Glass
R: reel
M: 4/4
K: Edorian
|:B2EF GBAG|FDAD BDAD|{A}B2EF GFGB|AFDF ~E3A|
B2EF GBAG|FDAD BDAD|GFEF GABc|1 dBAF EFGA:|2 dBAF ~E3E||
|:~B2ef gfeg|fdB/c/d Adf2|B/c/def gfec|dBAF ~E3A|
~B2ef gfeg|fdB/c/d Adfd|~e3f g2fe|1 dBAF ~E3E:|2 dBAF EFGA||

